icons/daisyui-dark.svg

<svg width="256" height="256" viewBox="0 0 256 256" fill="none" xmlns="http://www.w3.org/2000/svg">
<path d="M196 0H60C26.8629 0 0 26.8629 0 60V196C0 229.137 26.8629 256 60 256H196C229.137 256 256 229.137 256 196V60C256 26.8629 229.137 0 196 0Z" fill="#282828"/>
<path d="M157.75 170H99.25C83.0957 170 70 183.375 70 199.875C70 216.375 83.0957 229.75 99.25 229.75H157.75C173.904 229.75 187 216.375 187 199.875C187 183.375 173.904 170 157.75 170Z" fill="#1AD1A5"/>
<path d="M128.5 161C164.674 161 194 130.78 194 93.5C194 56.2207 164.674 26 128.5 26C92.3261 26 63 56.2207 63 93.5C63 130.78 92.3261 161 128.5 161Z" fill="black" fill-opacity="0.2"/>
<path d="M128 153C160.584 153 187 126.138 187 93C187 59.8628 160.584 33 128 33C95.4158 33 69 59.8628 69 93C69 126.138 95.4158 153 128 153Z" fill="#CCCCCC"/>
<path d="M128 150C158.927 150 184 124.481 184 93C184 61.5197 158.927 36 128 36C97.0727 36 72 61.5197 72 93C72 124.481 97.0727 150 128 150Z" fill="white"/>
<path d="M128.208 119.536C142.682 119.536 154.416 107.552 154.416 92.768C154.416 77.9844 142.682 66 128.208 66C113.734 66 102 77.9844 102 92.768C102 107.552 113.734 119.536 128.208 119.536Z" fill="#FF9903"/>
</svg>

<svg xmlns="http://www.w3.org/2000/svg" width="256" height="256" fill="none"><path fill="#282828" d="M196 0H60C26.863 0 0 26.863 0 60v136c0 33.137 26.863 60 60 60h136c33.137 0 60-26.863 60-60V60c0-33.137-26.863-60-60-60"/><path fill="#1AD1A5" d="M157.75 170h-58.5C83.096 170 70 183.375 70 199.875s13.096 29.875 29.25 29.875h58.5c16.154 0 29.25-13.375 29.25-29.875S173.904 170 157.75 170"/><path fill="#000" fill-opacity=".2" d="M128.5 161c36.174 0 65.5-30.22 65.5-67.5S164.674 26 128.5 26 63 56.22 63 93.5 92.326 161 128.5 161"/><path fill="#CCC" d="M128 153c32.584 0 59-26.862 59-60 0-33.137-26.416-60-59-60S69 59.863 69 93s26.416 60 59 60"/><path fill="#fff" d="M128 150c30.927 0 56-25.519 56-57 0-31.48-25.073-57-56-57S72 61.52 72 93c0 31.481 25.073 57 56 57"/><path fill="#FF9903" d="M128.208 119.536c14.474 0 26.208-11.984 26.208-26.768S142.682 66 128.208 66 102 77.984 102 92.768s11.734 26.768 26.208 26.768"/></svg>
